public/images/logo.svg

<svg width="100" height="100" viewBox="0 0 100 100" fill="none" xmlns="http://www.w3.org/2000/svg">
<g clip-path="url(#clip0)">
<rect width="100" height="100" fill="#CC9988"/>
<path d="M34.544 81.576C28.16 81.576 23.048 80.376 19.208 77.976C15.368 75.528 13.448 71.808 13.448 66.816C13.448 64.176 13.904 62.16 14.816 60.768C15.728 59.376 17.072 58.68 18.848 58.68C20.144 58.68 21.2 59.016 22.016 59.688C22.832 60.36 23.24 61.224 23.24 62.28C23.24 63.24 23.168 64.08 23.024 64.8C23.024 64.992 22.976 65.328 22.88 65.808C22.832 66.288 22.808 66.792 22.808 67.32C22.808 69.48 23.888 71.088 26.048 72.144C28.256 73.2 31.328 73.728 35.264 73.728C39.344 73.728 42.536 73.008 44.84 71.568C47.144 70.08 48.296 68.016 48.296 65.376C48.296 63.744 47.768 62.352 46.712 61.2C45.656 60 44.336 59.016 42.752 58.248C41.168 57.432 38.936 56.448 36.056 55.296C32.36 53.856 29.336 52.488 26.984 51.192C24.68 49.896 22.688 48.144 21.008 45.936C19.376 43.68 18.56 40.896 18.56 37.584C18.56 34.128 19.472 31.056 21.296 28.368C23.168 25.68 25.832 23.592 29.288 22.104C32.792 20.616 36.896 19.872 41.6 19.872C45.104 19.872 48.32 20.4 51.248 21.456C54.176 22.464 56.504 24.024 58.232 26.136C60.008 28.248 60.896 30.84 60.896 33.912C60.896 36.936 60.44 39.216 59.528 40.752C58.616 42.288 57.272 43.056 55.496 43.056C54.248 43.056 53.192 42.672 52.328 41.904C51.512 41.136 51.104 40.224 51.104 39.168C51.104 38.256 51.176 37.416 51.32 36.648C51.464 35.208 51.536 34.296 51.536 33.912C51.536 31.896 50.552 30.36 48.584 29.304C46.616 28.248 44.168 27.72 41.24 27.72C37.112 27.72 33.944 28.488 31.736 30.024C29.576 31.512 28.496 33.624 28.496 36.36C28.496 38.184 29.048 39.744 30.152 41.04C31.304 42.336 32.72 43.416 34.4 44.28C36.08 45.144 38.432 46.176 41.456 47.376C45.104 48.864 48.032 50.208 50.24 51.408C52.448 52.608 54.32 54.24 55.856 56.304C57.44 58.368 58.232 60.912 58.232 63.936C58.232 69.6 56.072 73.968 51.752 77.04C47.48 80.064 41.744 81.576 34.544 81.576ZM79.0659 70.848C79.5939 70.368 80.1219 70.128 80.6499 70.128C81.2259 70.128 81.6819 70.464 82.0179 71.136C82.4019 71.76 82.5939 72.528 82.5939 73.44C82.5939 75.456 81.8739 77.064 80.4339 78.264C77.9379 80.328 75.1059 81.36 71.9379 81.36C67.3779 81.36 64.0419 79.464 61.9299 75.672C59.8179 71.832 58.7619 66.84 58.7619 60.696C58.7619 54.84 59.5059 48.168 60.9939 40.68C62.5299 33.192 64.7619 26.76 67.6899 21.384C70.6659 16.008 74.1939 13.32 78.2739 13.32C80.5779 13.32 82.3779 14.4 83.6739 16.56C85.0179 18.672 85.6899 21.72 85.6899 25.704C85.6899 31.416 84.1059 38.04 80.9379 45.576C77.8179 53.112 73.5459 60.552 68.1219 67.896C68.4579 69.864 69.0579 71.28 69.9219 72.144C70.7859 73.008 71.9619 73.44 73.4499 73.44C74.2659 73.44 75.1779 73.2 76.1859 72.72C77.2419 72.24 78.2019 71.616 79.0659 70.848ZM76.6899 20.448C75.5859 20.448 74.3379 22.44 72.9459 26.424C71.5539 30.408 70.3299 35.352 69.2739 41.256C68.2179 47.16 67.6419 52.824 67.5459 58.248C70.9539 52.632 73.6659 47.016 75.6819 41.4C77.6979 35.736 78.7059 30.576 78.7059 25.92C78.7059 22.272 78.0339 20.448 76.6899 20.448Z" fill="#FFF2DB"/>
</g>
<defs>
<clipPath id="clip0">
<rect width="100" height="100" fill="white"/>
</clipPath>
</defs>
</svg>

<svg xmlns="http://www.w3.org/2000/svg" fill="none" viewBox="0 0 100 100"><g clip-path="url(#clip0)"><path fill="#C98" d="M0 0h100v100H0z"/><path fill="#FFF2DB" d="M34.544 81.576c-6.384 0-11.496-1.2-15.336-3.6-3.84-2.448-5.76-6.168-5.76-11.16 0-2.64.456-4.656 1.368-6.048.912-1.392 2.256-2.088 4.032-2.088 1.296 0 2.352.336 3.168 1.008.816.672 1.224 1.536 1.224 2.592 0 .96-.072 1.8-.216 2.52 0 .192-.048.528-.144 1.008-.048.48-.072.984-.072 1.512 0 2.16 1.08 3.768 3.24 4.824 2.208 1.056 5.28 1.584 9.216 1.584 4.08 0 7.272-.72 9.576-2.16 2.304-1.488 3.456-3.552 3.456-6.192 0-1.632-.528-3.024-1.584-4.176-1.056-1.2-2.376-2.184-3.96-2.952-1.584-.816-3.816-1.8-6.696-2.952-3.696-1.44-6.72-2.808-9.072-4.104-2.304-1.296-4.296-3.048-5.976-5.256-1.632-2.256-2.448-5.04-2.448-8.352 0-3.456.912-6.528 2.736-9.216 1.872-2.688 4.536-4.776 7.992-6.264 3.504-1.488 7.608-2.232 12.312-2.232 3.504 0 6.72.528 9.648 1.584 2.928 1.008 5.256 2.568 6.984 4.68 1.776 2.112 2.664 4.704 2.664 7.776 0 3.024-.456 5.304-1.368 6.84-.912 1.536-2.256 2.304-4.032 2.304-1.248 0-2.304-.384-3.168-1.152-.816-.768-1.224-1.68-1.224-2.736 0-.912.072-1.752.216-2.52.144-1.44.216-2.352.216-2.736 0-2.016-.984-3.552-2.952-4.608-1.968-1.056-4.416-1.584-7.344-1.584-4.128 0-7.296.768-9.504 2.304-2.16 1.488-3.24 3.6-3.24 6.336 0 1.824.552 3.384 1.656 4.68 1.152 1.296 2.568 2.376 4.248 3.24 1.68.864 4.032 1.896 7.056 3.096 3.648 1.488 6.576 2.832 8.784 4.032 2.208 1.2 4.08 2.832 5.616 4.896 1.584 2.064 2.376 4.608 2.376 7.632 0 5.664-2.16 10.032-6.48 13.104-4.272 3.024-10.008 4.536-17.208 4.536zm44.522-10.728c.528-.48 1.056-.72 1.584-.72.576 0 1.032.336 1.368 1.008.384.624.576 1.392.576 2.304 0 2.016-.72 3.624-2.16 4.824-2.496 2.064-5.328 3.096-8.496 3.096-4.56 0-7.896-1.896-10.008-5.688-2.112-3.84-3.168-8.832-3.168-14.976 0-5.856.744-12.528 2.232-20.016 1.536-7.488 3.768-13.92 6.696-19.296 2.976-5.376 6.504-8.064 10.584-8.064 2.304 0 4.104 1.08 5.4 3.24 1.344 2.112 2.016 5.16 2.016 9.144 0 5.712-1.584 12.336-4.752 19.872-3.12 7.536-7.392 14.976-12.816 22.32.336 1.968.936 3.384 1.8 4.248.864.864 2.04 1.296 3.528 1.296.816 0 1.728-.24 2.736-.72a11.428 11.428 0 0 0 2.88-1.872zm-2.376-50.4c-1.104 0-2.352 1.992-3.744 5.976-1.392 3.984-2.616 8.928-3.672 14.832s-1.632 11.568-1.728 16.992c3.408-5.616 6.12-11.232 8.136-16.848 2.016-5.664 3.024-10.824 3.024-15.48 0-3.648-.672-5.472-2.016-5.472z"/></g><defs><clipPath id="clip0"><path fill="#fff" d="M0 0h100v100H0z"/></clipPath></defs></svg>
